icons/carets-out-horizontal.svg

<svg xmlns="http://www.w3.org/2000/svg" width="24" height="24" viewBox="0 0 24 24">
  <path d="M15,5.41421356 C15.2652165,5.41421356 15.5195704,5.5195704 15.7071068,5.70710678 L21.2928932,11.2928932 C21.6834175,11.6834175 21.6834175,12.3165825 21.2928932,12.7071068 L15.7071068,18.2928932 C15.3165825,18.6834175 14.6834175,18.6834175 14.2928932,18.2928932 C14.1053568,18.1053568 14,17.8510029 14,17.5857864 L14,6.41421356 C14,5.86192881 14.4477153,5.41421356 15,5.41421356 Z M9,5.41421356 C9.55228475,5.41421356 10,5.86192881 10,6.41421356 L10,6.41421356 L10,17.5857864 C10,17.8510029 9.89464316,18.1053568 9.70710678,18.2928932 C9.31658249,18.6834175 8.68341751,18.6834175 8.29289322,18.2928932 L8.29289322,18.2928932 L2.70710678,12.7071068 C2.31658249,12.3165825 2.31658249,11.6834175 2.70710678,11.2928932 L2.70710678,11.2928932 L8.29289322,5.70710678 C8.4804296,5.5195704 8.73478351,5.41421356 9,5.41421356 Z"/>
</svg>

<svg xmlns="http://www.w3.org/2000/svg" viewBox="0 0 24 24">
  <path d="M15 5.41a1 1 0 0 1 .7.3l5.6 5.58a1 1 0 0 1 0 1.42l-5.6 5.58a1 1 0 0 1-1.7-.7V6.4a1 1 0 0 1 1-1zm-6 0a1 1 0 0 1 1 1V17.6a1 1 0 0 1-1.7.7l-5.6-5.58a1 1 0 0 1 0-1.42l5.6-5.58a1 1 0 0 1 .7-.3z"/>
</svg>
